images/customer-logo/reed.svg

<?xml version="1.0" encoding="UTF-8" standalone="no"?>
<svg
   xmlns:dc="http://purl.org/dc/elements/1.1/"
   xmlns:cc="http://creativecommons.org/ns#"
   xmlns:rdf="http://www.w3.org/1999/02/22-rdf-syntax-ns#"
   xmlns:svg="http://www.w3.org/2000/svg"
   xmlns="http://www.w3.org/2000/svg"
   xmlns:sodipodi="http://sodipodi.sourceforge.net/DTD/sodipodi-0.dtd"
   xmlns:inkscape="http://www.inkscape.org/namespaces/inkscape"
   width="100%"
   height="100%"
   viewBox="0 0 300 100"
   version="1.1"
   xml:space="preserve"
   style="fill-rule:evenodd;clip-rule:evenodd;stroke-linejoin:round;stroke-miterlimit:2;"
   id="svg4332"
   sodipodi:docname="reed.svg"
   inkscape:version="0.92.5 (2060ec1f9f, 2020-04-08)"><metadata
   id="metadata4338"><rdf:RDF><cc:Work
       rdf:about=""><dc:format>image/svg+xml</dc:format><dc:type
         rdf:resource="http://purl.org/dc/dcmitype/StillImage" /></cc:Work></rdf:RDF></metadata><defs
   id="defs4336" /><sodipodi:namedview
   pagecolor="#ffffff"
   bordercolor="#666666"
   borderopacity="1"
   objecttolerance="10"
   gridtolerance="10"
   guidetolerance="10"
   inkscape:pageopacity="0"
   inkscape:pageshadow="2"
   inkscape:window-width="2800"
   inkscape:window-height="1672"
   id="namedview4334"
   showgrid="false"
   inkscape:zoom="2.36"
   inkscape:cx="150"
   inkscape:cy="50"
   inkscape:window-x="80"
   inkscape:window-y="54"
   inkscape:window-maximized="1"
   inkscape:current-layer="svg4332" />
    <g
   transform="translate(3.1470476e-5,3.1254)"
   id="g4330">
        <path
   d="m 67.263,75.183 c 4.549,0 8.242,3.693 8.242,8.241 0,4.549 -3.693,8.242 -8.242,8.242 -4.549,0 -8.242,-3.693 -8.242,-8.242 0,-4.548 3.693,-8.241 8.242,-8.241 z m 24,0 c 4.549,0 8.242,3.693 8.242,8.241 0,4.549 -3.693,8.242 -8.242,8.242 -4.549,0 -8.242,-3.693 -8.242,-8.242 0,-4.548 3.693,-8.241 8.242,-8.241 z m 24,0 c 4.549,0 8.242,3.693 8.242,8.241 0,4.549 -3.693,8.242 -8.242,8.242 -4.549,0 -8.242,-3.693 -8.242,-8.242 0,-4.548 3.693,-8.241 8.242,-8.241 z"
   style="fill:#e63429"
   id="path4326"
   inkscape:connector-curvature="0" />
        <path
   d="m 61.045,2.787 c 0.658,19.983 0.728,40.103 0,60.408 3.009,-0.324 6.004,-0.319 8.983,0 -0.55,-4.279 -0.767,-13.528 -0.523,-29.644 l 3.778,-0.202 c 1.639,0.279 3.106,1.314 4.4,3.104 7.392,8.646 14.634,17.383 21.488,26.354 14.694,-0.175 29.398,-0.216 44.117,-0.057 -0.227,-1.714 -0.106,-3.496 0.039,-5.331 -8.508,0.755 -17.162,1.047 -25.673,1.139 -0.407,-8.633 -0.475,-17.143 -0.307,-25.742 7.718,-0.084 15.4,-0.034 22.928,0.584 -0.257,-1.556 -0.345,-3.063 0.086,-5.151 -7.585,0.496 -15.175,0.87 -22.79,0.668 -0.155,-7.217 -0.168,-14.525 0.03,-22.102 8.456,0.121 16.886,0.372 25.247,0.97 -0.109,-1.704 -0.066,-3.397 0.157,-5.244 -11.357,0.592 -22.746,0.673 -34.116,0.053 0.715,18.687 0.807,37.371 0.177,56.052 -1.106,1.162 -2.868,-0.798 -5.562,-3.724 L 84.636,33.061 c 0,0 18.125,-3.326 18.059,-15.71 C 102.611,1.453 88.382,2.236 82.815,2.594 75.583,3.058 68.356,3.287 61.045,2.787 Z M 188.436,2.671 c 0.262,19.995 0.128,40.146 -0.068,60.143 l 9.195,-0.178 c 3.25,0.169 44.748,7.118 43.383,-33.255 -1.189,-35.182 -36.008,-25.986 -42.858,-26.756 -2.182,0.179 -5.786,0.127 -9.652,0.046 z m -40.301,60.124 c 14.694,-0.175 19.793,-0.204 34.512,-0.045 -0.227,-1.714 -0.106,-3.496 0.039,-5.331 -8.508,0.755 -17.163,1.047 -25.673,1.139 -0.407,-8.633 -0.475,-17.143 -0.307,-25.742 7.717,-0.084 15.399,-0.034 22.928,0.584 -0.257,-1.556 -0.345,-3.063 0.085,-5.151 -7.584,0.496 -15.174,0.87 -22.79,0.668 -0.154,-7.217 -0.167,-14.525 0.031,-22.102 8.455,0.121 16.885,0.372 25.247,0.97 -0.109,-1.704 -0.066,-3.397 0.156,-5.244 -11.356,0.592 -22.745,0.673 -34.116,0.053 0.716,18.687 0.808,37.371 0.178,56.052 z m 48.56,-56.416 c -0.424,17.501 -0.47,35.019 0.069,52.556 25.94,3.083 37.016,-7.116 36.206,-27.934 C 231.375,7.372 222.149,4.775 196.695,6.379 Z M 70.178,6.274 c -1.03,5.436 -0.874,15.083 -0.688,24.593 0,0 25.058,3.223 24.876,-13.709 C 94.211,2.788 70.178,6.274 70.178,6.274 Z"
   style="fill:#1f2d79"
   id="path4328"
   inkscape:connector-curvature="0" />
    </g>
</svg>

<?xml version="1.0" encoding="UTF-8" standalone="no"?>
<!DOCTYPE svg PUBLIC "-//W3C//DTD SVG 1.1//EN" "http://www.w3.org/Graphics/SVG/1.1/DTD/svg11.dtd">
<svg width="100%" height="100%" viewBox="0 0 300 100" version="1.1" xmlns="http://www.w3.org/2000/svg" xmlns:xlink="http://www.w3.org/1999/xlink" xml:space="preserve" xmlns:serif="http://www.serif.com/" style="fill-rule:evenodd;clip-rule:evenodd;stroke-linejoin:round;stroke-miterlimit:2;">
    <g transform="matrix(1,0,0,1,-54.8018,2.8176)">
        <path d="M67.263,75.183C71.812,75.183 75.505,78.876 75.505,83.424C75.505,87.973 71.812,91.666 67.263,91.666C62.714,91.666 59.021,87.973 59.021,83.424C59.021,78.876 62.714,75.183 67.263,75.183ZM91.263,75.183C95.812,75.183 99.505,78.876 99.505,83.424C99.505,87.973 95.812,91.666 91.263,91.666C86.714,91.666 83.021,87.973 83.021,83.424C83.021,78.876 86.714,75.183 91.263,75.183ZM115.263,75.183C119.812,75.183 123.505,78.876 123.505,83.424C123.505,87.973 119.812,91.666 115.263,91.666C110.714,91.666 107.021,87.973 107.021,83.424C107.021,78.876 110.714,75.183 115.263,75.183Z" style="fill:rgb(230,52,41);"/>
        <path d="M61.045,2.787C61.703,22.77 61.773,42.89 61.045,63.195C64.054,62.871 67.049,62.876 70.028,63.195C69.478,58.916 69.261,49.667 69.505,33.551L73.283,33.349C74.922,33.628 76.389,34.663 77.683,36.453C85.075,45.099 92.317,53.836 99.171,62.807C113.865,62.632 128.569,62.591 143.288,62.75C143.061,61.036 143.182,59.254 143.327,57.419C134.819,58.174 126.165,58.466 117.654,58.558C117.247,49.925 117.179,41.415 117.347,32.816C125.065,32.732 132.747,32.782 140.275,33.4C140.018,31.844 139.93,30.337 140.361,28.249C132.776,28.745 125.186,29.119 117.571,28.917C117.416,21.7 117.403,14.392 117.601,6.815C126.057,6.936 134.487,7.187 142.848,7.785C142.739,6.081 142.782,4.388 143.005,2.541C131.648,3.133 120.259,3.214 108.889,2.594C109.604,21.281 109.696,39.965 109.066,58.646C107.96,59.808 106.198,57.848 103.504,54.922L84.636,33.061C84.636,33.061 102.761,29.735 102.695,17.351C102.611,1.453 88.382,2.236 82.815,2.594C75.583,3.058 68.356,3.287 61.045,2.787ZM188.436,2.671C188.698,22.666 188.564,42.817 188.368,62.814L197.563,62.636C200.813,62.805 242.311,69.754 240.946,29.381C239.757,-5.801 204.938,3.395 198.088,2.625C195.906,2.804 192.302,2.752 188.436,2.671ZM148.135,62.795C162.829,62.62 167.928,62.591 182.647,62.75C182.42,61.036 182.541,59.254 182.686,57.419C174.178,58.174 165.523,58.466 157.013,58.558C156.606,49.925 156.538,41.415 156.706,32.816C164.423,32.732 172.105,32.782 179.634,33.4C179.377,31.844 179.289,30.337 179.719,28.249C172.135,28.745 164.545,29.119 156.929,28.917C156.775,21.7 156.762,14.392 156.96,6.815C165.415,6.936 173.845,7.187 182.207,7.785C182.098,6.081 182.141,4.388 182.363,2.541C171.007,3.133 159.618,3.214 148.247,2.594C148.963,21.281 149.055,39.965 148.425,58.646L148.135,62.795ZM196.695,6.379C196.271,23.88 196.225,41.398 196.764,58.935C222.704,62.018 233.78,51.819 232.97,31.001C231.375,7.372 222.149,4.775 196.695,6.379ZM70.178,6.274C69.148,11.71 69.304,21.357 69.49,30.867C69.49,30.867 94.548,34.09 94.366,17.158C94.211,2.788 70.178,6.274 70.178,6.274Z" style="fill:rgb(31,45,121);"/>
    </g>
</svg>
